X: 13
T: DoulzEspoir
M: 6/4
L: 1/8
V:1
K:Ddor clef=treble-8 octave=1 
F,12| D,12| E,12| F,12|
A,12| G,12| F,12| F,12|
C12| A,12| C12| B,12|
A,12| G,12| F,12| F,12|
A,12| G,12| D,12| C,12|
C,12| D,12| D,12| C,12|
F,12| A,12| C12| B,12|
A,12| G,12| F,12| C12|
D12| C12| F,12| C12|
B,12| A,12| C12| B,12|
A,12| G,12| F,12| E,12|
D,12| D,12| A,12| C12|
B,12| C12| B,12| A,12|
G,12| G,12| C12| B,12|
A,12| A,12| A,12| G,12|
F,12| F,12| F,12|

